images/icons/loginblack.svg

<svg width="16" height="16" viewBox="0 0 16 16" fill="none" xmlns="http://www.w3.org/2000/svg">
<path d="M7.31315 14.4168C7.31315 14.0371 7.62096 13.7293 8.00065 13.7293H13.5007C13.6272 13.7293 13.7298 13.6267 13.7298 13.5002L13.7298 2.50016C13.7298 2.3736 13.6272 2.271 13.5006 2.271L8.00065 2.271C7.62095 2.271 7.31315 1.96319 7.31315 1.5835C7.31315 1.2038 7.62095 0.895996 8.00065 0.895996H13.5006C14.3866 0.895996 15.1048 1.61421 15.1048 2.50016V13.5002C15.1048 14.3861 14.3866 15.1043 13.5007 15.1043H8.00065C7.62096 15.1043 7.31315 14.7965 7.31315 14.4168Z" fill="black"/>
<path d="M0.208984 9.02245C0.208984 9.52871 0.619389 9.93911 1.12565 9.93911H5.57697C5.59799 10.2649 5.6243 10.5905 5.65591 10.9156L5.6831 11.1954C5.72731 11.6503 6.21036 11.9227 6.6225 11.7252C8.2981 10.9222 9.81498 9.8233 11.1002 8.48142L11.1277 8.45274C11.3725 8.19711 11.3725 7.79397 11.1277 7.53833L11.1002 7.50966C9.81498 6.16778 8.2981 5.0689 6.62251 4.26589C6.21036 4.06837 5.72731 4.34079 5.6831 4.79568L5.65591 5.07545C5.6243 5.40061 5.59799 5.72617 5.57697 6.05198L1.12565 6.05198C0.619391 6.05198 0.208984 6.46238 0.208984 6.96864V9.02245Z" fill="black"/>
</svg>

<svg width="16" height="16" fill="none" xmlns="http://www.w3.org/2000/svg"><path d="M7.313 14.417c0-.38.308-.688.688-.688h5.5a.23.23 0 0 0 .229-.229v-11a.23.23 0 0 0-.23-.229H8A.688.688 0 0 1 8 .896h5.5c.887 0 1.605.718 1.605 1.604v11c0 .886-.718 1.604-1.604 1.604H8a.688.688 0 0 1-.688-.687Z" fill="#000"/><path d="M.209 9.022c0 .507.41.917.917.917h4.451c.021.326.047.652.079.977l.027.28a.658.658 0 0 0 .94.53A15.44 15.44 0 0 0 11.1 8.48l.028-.028a.661.661 0 0 0 0-.915L11.1 7.51a15.44 15.44 0 0 0-4.477-3.244.658.658 0 0 0-.94.53l-.027.28c-.032.325-.058.65-.079.976H1.126a.917.917 0 0 0-.917.917v2.053Z" fill="#000"/></svg>
